V/valinux.co.jp logo.svg

<?xml version="1.0" ?>
<svg xmlns="http://www.w3.org/2000/svg" viewBox="0 0 138.072 29.152">
	<g>
		<polygon fill="none" points="60.02,7.807 62.145,7.807 61.091,5.305  "/>
		<polygon fill="none" points="113.733,23.148 113.224,24.361 114.237,24.361  "/>
		<polygon fill="none" points="70.501,23.148 69.993,24.361 71.005,24.361  "/>
		<path fill="none" d="M92.923,22.933c0-0.605-0.588-0.56-0.955-0.56h-0.224v1.165h0.211C92.324,23.539,92.923,23.55,92.923,22.933z"/>
		<path fill="none" d="M35.747,9.693c-0.213-0.699-0.539-1.346-0.965-1.935c-1.293-1.793-3.505-3.061-6.246-3.707 c-0.924-1.428-1.777-2.364-2.309-2.264c-0.448,0.082-0.854,0.738-1.34,1.791c-2.554-0.092-5.356,0.264-8.194,1.125 C7.82,7.396,1.974,14.002,3.629,19.453c0.206,0.683,0.52,1.313,0.93,1.891c1.285,1.814,3.508,3.1,6.268,3.754 c0.927,1.434,1.784,2.375,2.317,2.275c0.449-0.084,0.856-0.742,1.343-1.799c2.555,0.092,5.36-0.264,8.2-1.127 C31.555,21.75,37.402,15.15,35.747,9.693z M12.637,14.325c1.083,0,1.963,0.881,1.963,1.965s-0.88,1.965-1.963,1.965 c-1.085,0-1.965-0.881-1.965-1.965S11.552,14.325,12.637,14.325z M26.726,14.935c-1.084,0-1.963-0.879-1.963-1.965 c0-1.084,0.879-1.961,1.963-1.961c1.087,0,1.968,0.877,1.968,1.961C28.694,14.056,27.813,14.935,26.726,14.935z M26.691,10.07 c-1.644,0-4.457,2.355-6.624,4.359c-4.609,6.076-5.532,12.078-6.891,12.33c-1.57,0.291-6.203-9.289-6.203-12.049 c0,0,2.639,4.372,5.71,4.372c1.645,0,4.464-2.355,6.63-4.359c4.604-6.08,5.529-12.078,6.888-12.328 c1.568-0.293,6.201,9.291,6.201,12.045C32.402,14.439,29.764,10.07,26.691,10.07z"/>
		<path fill="#040000" d="M50.327,25.21v-3.566h-1.35v3.766c0,0.41,0,0.787-0.503,0.787c-0.141,0-0.229-0.02-0.407-0.053 l-0.121,0.715c0.273,0.059,0.547,0.086,0.819,0.086C50.313,26.945,50.327,26.066,50.327,25.21z"/>
		<path fill="#040000" d="M71.279,25.039l0.373,0.898h1.446l-1.961-4.293h-0.782L68.4,25.937h0.929l0.383-0.898H71.279z M70.501,23.148l0.504,1.213h-1.013L70.501,23.148z"/>
		<path fill="#040000" d="M92.006,24.263c0.681,0,2.323,0.105,2.323-1.402c0-0.43-0.237-0.855-0.656-1.025 c-0.413-0.172-0.808-0.191-1.632-0.191h-1.646v4.293h1.35v-1.674H92.006z M91.745,22.374h0.224c0.367,0,0.955-0.046,0.955,0.56 c0,0.617-0.6,0.605-0.968,0.605h-0.211V22.374z"/>
		<path fill="#040000" d="M114.51,25.039l0.37,0.898h1.445l-1.955-4.293h-0.783l-1.965,4.293h0.932l0.381-0.898H114.51z M113.733,23.148l0.504,1.213h-1.013L113.733,23.148z"/>
		<polygon fill="#040000" points="136.806,25.937 137.616,25.937 137.616,21.644 136.712,21.644 136.712,24.052 134.369,21.644 133.56,21.644 133.56,25.937 134.463,25.937 134.463,23.531  "/>
		<polygon fill="#040000" points="52.024,2.208 49.694,7.694 47.379,2.208 44.248,2.208 48.315,11.044 49.976,11.044 54.048,2.208 "/>
		<path fill="#040000" d="M62.428,2.208h-1.647l-4.11,8.834h1.957l0.802-1.846h3.29l0.78,1.846h3.035L62.428,2.208z M60.02,7.807 l1.071-2.502l1.054,2.502H60.02z"/>
		<polygon fill="#040000" points="79.845,2.208 79.845,11.042 86.381,11.042 86.381,9.395 82.681,9.395 82.681,2.208  "/>
		<rect x="91.412" y="2.209" fill="#040000" width="2.837" height="8.834"/>
		<polygon fill="#040000" points="108.758,2.208 106.858,2.208 106.858,7.164 101.934,2.208 100.233,2.208 100.233,11.042 102.135,11.042 102.135,6.092 107.06,11.042 108.758,11.042  "/>
		<path fill="#040000" d="M114.629,2.208v4.697c0,1.217,0.093,1.793,0.373,2.358c0.445,0.882,1.568,1.912,3.749,1.912 c4.604,0,4.376-3.467,4.376-4.297v-4.67h-1.9v4.576c0,0.858-0.04,1.395-0.214,1.781c-0.346,0.762-1.058,0.952-1.66,0.952 c-0.36,0-1.271-0.055-1.686-0.952c-0.174-0.377-0.199-0.775-0.199-1.765V2.208H114.629z"/>
		<polygon fill="#040000" points="134.343,6.483 137.449,2.208 135.253,2.208 133.447,4.914 131.613,2.208 128.308,2.208 131.48,6.518 128.093,11.044 130.301,11.044 132.375,8.072 134.383,11.044 137.664,11.044  "/>
		<path fill="#040000" d="M137.847,19.435H47.761c-0.123,0-0.223,0.1-0.223,0.223c0,0.121,0.1,0.219,0.223,0.219h90.086 c0.125,0,0.225-0.098,0.225-0.219C138.072,19.535,137.972,19.435,137.847,19.435z"/>
		<path fill="#040000" d="M49.258,17.06c-0.353,0-0.63-0.092-0.926-0.213l-0.231,0.573c0.398,0.177,0.772,0.251,1.204,0.251 c0.995,0,1.469-0.529,1.469-1.064c0-0.553-0.516-0.869-0.823-1.035l-0.428-0.231c-0.227-0.127-0.405-0.224-0.405-0.363 c0-0.14,0.172-0.232,0.428-0.232c0.333,0,0.624,0.092,0.812,0.154l0.203-0.578c-0.335-0.125-0.682-0.188-1.038-0.188 c-0.9,0-1.447,0.444-1.447,1.02c0,0.59,0.635,0.93,0.833,1.035l0.412,0.217c0.312,0.172,0.41,0.268,0.41,0.402 C49.731,16.994,49.498,17.06,49.258,17.06z"/>
		<polygon fill="#040000" points="64.414,17.621 64.414,16.064 65.717,14.181 64.909,14.181 64.117,15.406 63.346,14.181 62.034,14.181 63.335,16.064 63.335,17.621  "/>
		<path fill="#040000" d="M78.159,17.06c-0.354,0-0.632-0.092-0.928-0.213l-0.229,0.573c0.396,0.177,0.771,0.251,1.203,0.251 c0.994,0,1.469-0.529,1.469-1.064c0-0.553-0.517-0.869-0.824-1.035l-0.426-0.231c-0.23-0.127-0.407-0.224-0.407-0.363 c0-0.14,0.172-0.232,0.428-0.232c0.333,0,0.625,0.092,0.813,0.154l0.204-0.578c-0.335-0.125-0.684-0.188-1.037-0.188 c-0.901,0-1.449,0.444-1.449,1.02c0,0.59,0.636,0.93,0.834,1.035l0.411,0.217c0.314,0.172,0.412,0.268,0.412,0.402 C78.632,16.994,78.399,17.06,78.159,17.06z"/>
		<polygon fill="#040000" points="93.333,17.621 93.333,14.79 94.394,14.79 94.394,14.181 91.156,14.181 91.156,14.79 92.228,14.79 92.228,17.621  "/>
		<polygon fill="#040000" points="108.511,14.806 108.511,14.181 105.918,14.181 105.918,17.621 108.531,17.621 108.531,16.978 107.021,16.978 107.021,16.13 108.401,16.13 108.401,15.535 107.021,15.535 107.021,14.806  "/>
		<polygon fill="#040000" points="123.798,17.621 123.798,14.181 122.418,14.181 121.673,16.23 120.931,14.181 119.551,14.181 119.551,17.621 120.288,17.621 120.288,14.951 121.264,17.621 121.769,17.621 122.739,14.951 122.739,17.621  "/>
		<path fill="#040000" d="M135.877,17.06c-0.354,0-0.63-0.092-0.927-0.213l-0.227,0.573c0.394,0.177,0.771,0.251,1.202,0.251 c0.992,0,1.468-0.529,1.468-1.064c0-0.553-0.517-0.869-0.824-1.035l-0.426-0.231c-0.229-0.127-0.406-0.224-0.406-0.363 c0-0.14,0.173-0.232,0.427-0.232c0.333,0,0.625,0.092,0.813,0.154l0.204-0.578c-0.335-0.125-0.684-0.188-1.037-0.188 c-0.901,0-1.449,0.444-1.449,1.02c0,0.59,0.637,0.93,0.834,1.035l0.412,0.217c0.312,0.172,0.411,0.268,0.411,0.402 C136.352,16.994,136.119,17.06,135.877,17.06z"/>
		<circle fill="#00508E" cx="12.637" cy="16.29" r="1.965"/>
		<path fill="#00508E" d="M26.201,2.394c-1.359,0.25-2.284,6.248-6.888,12.328c-2.166,2.004-4.985,4.359-6.63,4.359 c-3.071,0-5.71-4.372-5.71-4.372c0,2.76,4.633,12.34,6.203,12.049c1.359-0.252,2.282-6.254,6.891-12.33 c2.167-2.004,4.98-4.359,6.624-4.359c3.073,0,5.711,4.369,5.711,4.369C32.402,11.685,27.769,2.101,26.201,2.394z"/>
		<path fill="#00508E" d="M26.726,11.009c-1.084,0-1.963,0.877-1.963,1.961c0,1.086,0.879,1.965,1.963,1.965 c1.087,0,1.968-0.879,1.968-1.965C28.694,11.886,27.813,11.009,26.726,11.009z"/>
		<path fill="#00508E" d="M39.376,14.578c0-3.037-1.255-5.86-3.402-8.193C32.43,2.531,26.46,0,19.689,0C8.818,0,0.006,6.521,0,14.57 v0.017c0.003,2.922,1.168,5.644,3.173,7.924c3.51,4,9.593,6.641,16.515,6.641C30.559,29.152,39.376,22.625,39.376,14.578z M22.687,24.447c-2.84,0.863-5.645,1.219-8.2,1.127c-0.487,1.057-0.894,1.715-1.343,1.799c-0.533,0.1-1.39-0.842-2.317-2.275 c-2.76-0.654-4.983-1.939-6.268-3.754c-0.41-0.578-0.724-1.208-0.93-1.891C1.974,14.002,7.82,7.396,16.693,4.703 c2.838-0.861,5.64-1.217,8.194-1.125c0.486-1.053,0.892-1.709,1.34-1.791c0.532-0.1,1.385,0.836,2.309,2.264 c2.741,0.646,4.953,1.914,6.246,3.707c0.426,0.589,0.752,1.236,0.965,1.935C37.402,15.15,31.555,21.75,22.687,24.447z"/>
	</g>
</svg>

<?xml version="1.0" ?>
<svg xmlns="http://www.w3.org/2000/svg" role="img" viewBox="-2.89 -2.76 143.65 34.65">
	<path fill="none" d="M 60.02,7.807 L 62.145,7.807 L 61.091,5.305 L 60.02,7.807 M 113.733,23.148 L 113.224,24.361 L 114.237,24.361 L 113.733,23.148 M 70.501,23.148 L 69.993,24.361 L 71.005,24.361 L 70.501,23.148 M 92.923,22.933 C 92.923,22.328 92.335,22.373 91.968,22.373 L 91.744,22.373 L 91.744,23.538 L 91.955,23.538 C 92.324,23.539 92.923,23.55 92.923,22.933 M 35.747,9.693 A 6.547,6.547 0.0 0,0 34.782,7.758 C 33.489,5.965 31.277,4.697 28.536,4.051 C 27.612,2.623 26.759,1.687 26.227,1.787 C 25.779,1.869 25.373,2.525 24.887,3.578 C 22.333,3.486 19.531,3.842 16.693,4.703 C 7.82,7.396 1.974,14.002 3.629,19.453 C 3.835,20.136 4.149,20.766 4.559,21.344 C 5.844,23.158 8.067,24.444 10.827,25.098 C 11.754,26.532 12.611,27.473 13.144,27.373 C 13.593,27.289 14.0,26.631 14.487,25.574 C 17.042,25.666 19.847,25.31 22.687,24.447 C 31.555,21.75 37.402,15.15 35.747,9.693 L 35.747,9.693 M 12.637,14.325 A 1.966,1.966 0.0 0,1 12.637,18.255 A 1.966,1.966 0.0 0,1 12.637,14.325 M 26.726,14.935 A 1.964,1.964 0.0 0,1 26.726,11.009 A 1.964,1.964 0.0 1,1 26.726,14.935 M 26.691,10.07 C 25.047,10.07 22.234,12.425 20.067,14.429 C 15.458,20.505 14.535,26.507 13.176,26.759 C 11.606,27.05 6.973,17.47 6.973,14.71 C 6.973,14.71 9.612,19.082 12.683,19.082 C 14.328,19.082 17.147,16.727 19.313,14.723 C 23.917,8.643 24.842,2.645 26.201,2.395 C 27.769,2.102 32.402,11.686 32.402,14.44 C 32.402,14.439 29.764,10.07 26.691,10.07 L 26.691,10.07"/>
	<path fill="#040000" d="M 50.327,25.21 L 50.327,21.644 L 48.977,21.644 L 48.977,25.41 C 48.977,25.82 48.977,26.197 48.474,26.197 C 48.333,26.197 48.245,26.177 48.067,26.144 L 47.946,26.859 C 48.219,26.918 48.493,26.945 48.765,26.945 C 50.313,26.945 50.327,26.066 50.327,25.21 M 71.279,25.039 L 71.652,25.937 L 73.098,25.937 L 71.137,21.644 L 70.355,21.644 L 68.4,25.937 L 69.329,25.937 L 69.712,25.039 L 71.279,25.039 M 70.501,23.148 L 71.005,24.361 L 69.992,24.361 L 70.501,23.148 M 92.006,24.263 C 92.687,24.263 94.329,24.368 94.329,22.861 C 94.329,22.431 94.092,22.006 93.673,21.836 C 93.26,21.664 92.865,21.645 92.041,21.645 L 90.395,21.645 L 90.395,25.938 L 91.745,25.938 L 91.745,24.264 L 92.006,24.264 L 92.006,24.263 M 91.745,22.374 L 91.969,22.374 C 92.336,22.374 92.924,22.328 92.924,22.934 C 92.924,23.551 92.324,23.539 91.956,23.539 L 91.745,23.539 L 91.745,22.374 M 114.51,25.039 L 114.88,25.937 L 116.325,25.937 L 114.37,21.644 L 113.587,21.644 L 111.622,25.937 L 112.554,25.937 L 112.935,25.039 L 114.51,25.039 M 113.733,23.148 L 114.237,24.361 L 113.224,24.361 L 113.733,23.148 M 136.806,25.937 L 137.616,25.937 L 137.616,21.644 L 136.712,21.644 L 136.712,24.052 L 134.369,21.644 L 133.56,21.644 L 133.56,25.937 L 134.463,25.937 L 134.463,23.531 L 136.806,25.937 M 52.024,2.208 L 49.694,7.694 L 47.379,2.208 L 44.248,2.208 L 48.315,11.044 L 49.976,11.044 L 54.048,2.208 L 52.024,2.208 M 62.428,2.208 L 60.781,2.208 L 56.671,11.042 L 58.628,11.042 L 59.43,9.196 L 62.72,9.196 L 63.5,11.042 L 66.535,11.042 L 62.428,2.208 M 60.02,7.807 L 61.091,5.305 L 62.145,7.807 L 60.02,7.807 M 79.845,2.208 L 79.845,11.042 L 86.381,11.042 L 86.381,9.395 L 82.681,9.395 L 82.681,2.208 L 79.845,2.208 M 91.412,2.209 L 94.249,2.209 L 94.249,11.043 L 91.412,11.043 L 91.412,2.209 M 108.758,2.208 L 106.858,2.208 L 106.858,7.164 L 101.934,2.208 L 100.233,2.208 L 100.233,11.042 L 102.135,11.042 L 102.135,6.092 L 107.06,11.042 L 108.758,11.042 L 108.758,2.208 M 114.629,2.208 L 114.629,6.905 C 114.629,8.122 114.722,8.698 115.002,9.263 C 115.447,10.145 116.57,11.175 118.751,11.175 C 123.355,11.175 123.127,7.708 123.127,6.878 L 123.127,2.208 L 121.227,2.208 L 121.227,6.784 C 121.227,7.642 121.187,8.179 121.013,8.565 C 120.667,9.327 119.955,9.517 119.353,9.517 C 118.993,9.517 118.082,9.462 117.667,8.565 C 117.493,8.188 117.468,7.79 117.468,6.8 L 117.468,2.208 L 114.629,2.208 M 134.343,6.483 L 137.449,2.208 L 135.253,2.208 L 133.447,4.914 L 131.613,2.208 L 128.308,2.208 L 131.48,6.518 L 128.093,11.044 L 130.301,11.044 L 132.375,8.072 L 134.383,11.044 L 137.664,11.044 L 134.343,6.483 M 137.847,19.435 L 47.761,19.435 A 0.221,0.221 0.0 0,0 47.761,19.877 L 137.847,19.877 A 0.222,0.222 0.0 0,0 138.072,19.658 C 138.072,19.535 137.972,19.435 137.847,19.435 M 49.258,17.06 C 48.905,17.06 48.628,16.968 48.332,16.847 L 48.101,17.42 C 48.499,17.597 48.873,17.671 49.305,17.671 C 50.3,17.671 50.774,17.142 50.774,16.607 C 50.774,16.054 50.258,15.738 49.951,15.572 L 49.523,15.341 C 49.296,15.214 49.118,15.117 49.118,14.978 C 49.118,14.838 49.29,14.746 49.546,14.746 C 49.879,14.746 50.17,14.838 50.358,14.9 L 50.561,14.322 A 2.95,2.95 0.0 0,0 49.523,14.134 C 48.623,14.134 48.076,14.578 48.076,15.154 C 48.076,15.744 48.711,16.084 48.909,16.189 L 49.321,16.406 C 49.633,16.578 49.731,16.674 49.731,16.808 C 49.731,16.994 49.498,17.06 49.258,17.06 L 49.258,17.06 M 64.414,17.621 L 64.414,16.064 L 65.717,14.181 L 64.909,14.181 L 64.117,15.406 L 63.346,14.181 L 62.034,14.181 L 63.335,16.064 L 63.335,17.621 L 64.414,17.621 M 78.159,17.06 C 77.805,17.06 77.527,16.968 77.231,16.847 L 77.002,17.42 A 2.82,2.82 0.0 0,0 78.205,17.671 C 79.199,17.671 79.674,17.142 79.674,16.607 C 79.674,16.054 79.157,15.738 78.85,15.572 L 78.424,15.341 C 78.194,15.214 78.017,15.117 78.017,14.978 C 78.017,14.838 78.189,14.746 78.445,14.746 C 78.778,14.746 79.07,14.838 79.258,14.9 L 79.462,14.322 A 2.957,2.957 0.0 0,0 78.425,14.134 C 77.524,14.134 76.976,14.578 76.976,15.154 C 76.976,15.744 77.612,16.084 77.81,16.189 L 78.221,16.406 C 78.535,16.578 78.633,16.674 78.633,16.808 C 78.632,16.994 78.399,17.06 78.159,17.06 M 93.333,17.621 L 93.333,14.79 L 94.394,14.79 L 94.394,14.181 L 91.156,14.181 L 91.156,14.79 L 92.228,14.79 L 92.228,17.621 L 93.333,17.621 M 108.511,14.806 L 108.511,14.181 L 105.918,14.181 L 105.918,17.621 L 108.531,17.621 L 108.531,16.978 L 107.021,16.978 L 107.021,16.13 L 108.401,16.13 L 108.401,15.535 L 107.021,15.535 L 107.021,14.806 L 108.511,14.806 M 123.798,17.621 L 123.798,14.181 L 122.418,14.181 L 121.673,16.23 L 120.931,14.181 L 119.551,14.181 L 119.551,17.621 L 120.288,17.621 L 120.288,14.951 L 121.264,17.621 L 121.769,17.621 L 122.739,14.951 L 122.739,17.621 L 123.798,17.621 M 135.877,17.06 C 135.523,17.06 135.247,16.968 134.95,16.847 L 134.723,17.42 C 135.117,17.597 135.494,17.671 135.925,17.671 C 136.917,17.671 137.393,17.142 137.393,16.607 C 137.393,16.054 136.876,15.738 136.569,15.572 L 136.143,15.341 C 135.914,15.214 135.737,15.117 135.737,14.978 C 135.737,14.838 135.91,14.746 136.164,14.746 C 136.497,14.746 136.789,14.838 136.977,14.9 L 137.181,14.322 A 2.957,2.957 0.0 0,0 136.144,14.134 C 135.243,14.134 134.695,14.578 134.695,15.154 C 134.695,15.744 135.332,16.084 135.529,16.189 L 135.941,16.406 C 136.253,16.578 136.352,16.674 136.352,16.808 C 136.352,16.994 136.119,17.06 135.877,17.06 L 135.877,17.06"/>
	<circle cx="12.637" cy="16.29" r="1.965" fill="#00508E"/>
	<path fill="#00508E" d="M 26.201,2.394 C 24.842,2.644 23.917,8.642 19.313,14.722 C 17.147,16.726 14.328,19.081 12.683,19.081 C 9.612,19.081 6.973,14.709 6.973,14.709 C 6.973,17.469 11.606,27.049 13.176,26.758 C 14.535,26.506 15.458,20.504 20.067,14.428 C 22.234,12.424 25.047,10.069 26.691,10.069 C 29.764,10.069 32.402,14.438 32.402,14.438 C 32.402,11.685 27.769,2.101 26.201,2.394 L 26.201,2.394"/>
	<path fill="#00508E" d="M 26.726,11.009 A 1.964,1.964 0.0 0,0 26.726,14.935 A 1.964,1.964 0.0 0,0 26.726,11.009"/>
	<path fill="#00508E" d="M 39.376,14.578 C 39.376,11.541 38.121,8.718 35.974,6.385 C 32.43,2.531 26.46,0.0 19.689,0.0 C 8.818,0.0 0.006,6.521 0.0,14.57 L 0.0,14.587 C 0.003,17.509 1.168,20.231 3.173,22.511 C 6.683,26.511 12.766,29.152 19.688,29.152 C 30.559,29.152 39.376,22.625 39.376,14.578 L 39.376,14.578 M 22.687,24.447 C 19.847,25.31 17.042,25.666 14.487,25.574 C 14.0,26.631 13.593,27.289 13.144,27.373 C 12.611,27.473 11.754,26.531 10.827,25.098 C 8.067,24.444 5.844,23.159 4.559,21.344 A 6.496,6.496 0.0 0,1 3.629,19.453 C 1.974,14.002 7.82,7.396 16.693,4.703 C 19.531,3.842 22.333,3.486 24.887,3.578 C 25.373,2.525 25.779,1.869 26.227,1.787 C 26.759,1.687 27.612,2.623 28.536,4.051 C 31.277,4.697 33.489,5.965 34.782,7.758 C 35.208,8.347 35.534,8.994 35.747,9.693 C 37.402,15.15 31.555,21.75 22.687,24.447 L 22.687,24.447"/>
</svg>
